X: 2383
M: C
L: 1/8
K: Gm
u(GA) |\
fdbg fdcd | BAGF GFEF |\
ug2 |\
gfdf gabg | gfdf GFDF |\
dfga bagf | d2g2g2 |]


